app/assets/images/payment_icons/ambank.svg

<svg xmlns="http://www.w3.org/2000/svg" width="38" height="24" viewBox="0 0 38 24" fill="none" aria-labelledby="pi-ambank" role="img"><title id="pi-ambank">AmBank</title><rect width="38" height="24" fill="white"/><path d="M25.24 8.56406C25.6919 8.56406 26.1393 8.65311 26.5567 8.82612C26.9742 8.99914 27.3534 9.25272 27.6728 9.57238C27.9922 9.89204 28.2454 10.2715 28.4181 10.6891C28.5907 11.1067 28.6794 11.5542 28.679 12.0061C28.6794 12.5595 28.5462 13.1049 28.2907 13.5959C28.0352 14.0868 27.6649 14.5088 27.2113 14.826C26.7578 15.1432 26.2343 15.3462 25.6855 15.4178C25.1367 15.4893 24.5787 15.4273 24.059 15.2371V20.6731C25.2971 20.8422 26.557 20.7443 27.7542 20.3861C28.9513 20.0279 30.0579 19.4176 30.9996 18.5962C31.9413 17.7748 32.6962 16.7614 33.2138 15.624C33.7313 14.4866 33.9994 13.2516 34 12.0021C34.0001 10.3365 33.525 8.70557 32.6306 7.30059C31.7362 5.89562 30.4595 4.77495 28.9505 4.07014C27.4414 3.36534 25.7627 3.10565 24.1112 3.32155C22.4597 3.53746 20.9041 4.22 19.627 5.28906C21.0097 6.67699 21.9097 8.47265 22.194 10.4111C22.4838 9.85372 22.9212 9.3867 23.4583 9.06098C23.9955 8.73527 24.6118 8.56337 25.24 8.56406" fill="#EC1C24"/><path d="M12.769 20.755C13.6444 20.7555 14.5148 20.6241 15.351 20.365V14.283C14.8183 14.8873 14.0906 15.2856 13.2945 15.4086C12.4984 15.5316 11.6844 15.3714 10.9942 14.9561C10.304 14.5407 9.78135 13.8964 9.51725 13.1354C9.25315 12.3744 9.26433 11.5449 9.54884 10.7912C9.83335 10.0376 10.3732 9.40767 11.0743 9.01105C11.7754 8.61444 12.5935 8.4763 13.3859 8.62068C14.1784 8.76507 14.8952 9.18283 15.4114 9.80124C15.9276 10.4196 16.2106 11.1995 16.211 12.005H16.213V20.754H21.536V12.005H21.534V12C21.534 7.16504 17.606 3.24304 12.768 3.24304C7.926 3.24304 4 7.16504 4 12C4 16.834 7.926 20.755 12.769 20.755" fill="#EC1C24"/></svg>

<svg xmlns="http://www.w3.org/2000/svg" width="38" height="24" fill="none" aria-labelledby="pi-ambank" role="img" viewBox="0 0 38 24"><title id="pi-ambank">AmBank</title><path fill="#fff" d="M0 0h38v24H0z"/><path fill="#EC1C24" d="M25.24 8.564a3.44 3.44 0 0 1 3.439 3.442 3.44 3.44 0 0 1-4.62 3.231v5.436A8.757 8.757 0 0 0 34 12.003a8.754 8.754 0 0 0-14.373-6.714 9.14 9.14 0 0 1 2.567 5.122 3.43 3.43 0 0 1 3.046-1.847"/><path fill="#EC1C24" d="M12.769 20.755c.875 0 1.746-.13 2.582-.39v-6.082a3.442 3.442 0 1 1 .86-2.278h.002v8.749h5.323v-8.749h-.002V12c0-4.835-3.928-8.757-8.766-8.757C7.926 3.243 4 7.165 4 12s3.926 8.755 8.769 8.755"/></svg>
